symbolic/64x64/apps/gtkterm.svg

<svg xmlns="http://www.w3.org/2000/svg" width="64" height="64" version="1">
 <rect style="opacity:0.2" width="52" height="32" x="6" y="17" rx="3.25" ry="2.857"/>
 <rect style="fill:#8e8e8e" width="52" height="32" x="6" y="16" rx="3.25" ry="2.857"/>
 <path style="opacity:0.2" d="m 15.665817,24 31.668366,0 c 1.462023,0 2.879386,1.077155 2.63903,2.375002 L 47.334183,40.625 C 47.093829,41.922845 46.157176,43 44.695153,43 l -26.390306,0 c -1.462023,0 -2.398675,-1.077155 -2.63903,-2.375 L 13.026787,26.375002 C 12.786431,25.077155 14.203794,24 15.665817,24 Z"/>
 <path style="fill:#2bd677" d="m 15.665817,23 31.668366,0 c 1.462023,0 2.879386,1.077155 2.63903,2.375002 L 47.334183,39.625 C 47.093829,40.922845 46.157176,42 44.695153,42 l -26.390306,0 c -1.462023,0 -2.398675,-1.077155 -2.63903,-2.375 L 13.026787,25.375002 C 12.786431,24.077155 14.203794,23 15.665817,23 Z"/>
 <rect style="opacity:0.2" width="10" height="10" x="2" y="28" rx="2.273" ry="2.145"/>
 <rect style="fill:#b3b3b3" width="10" height="10" x="2" y="27" rx="2.273" ry="2.145"/>
 <circle style="opacity:0.5" cx="7" cy="32" r="3"/>
 <rect style="opacity:0.2" width="10" height="10" x="51" y="28" rx="2.273" ry="2.145"/>
 <rect style="fill:#b3b3b3" width="10" height="10" x="51" y="27" rx="2.273" ry="2.145"/>
 <circle style="opacity:0.5" cx="56" cy="32" r="3"/>
 <path style="opacity:0.1;fill:#ffffff" d="M 4.2734375 27 C 3.0142799 27 2 27.956201 2 29.144531 L 2 30.144531 C 2 28.956201 3.0142799 28 4.2734375 28 L 9.7265625 28 C 10.98572 28 12 28.956201 12 30.144531 L 12 29.144531 C 12 27.956201 10.98572 27 9.7265625 27 L 4.2734375 27 z"/>
 <path style="opacity:0.1;fill:#ffffff" d="M 53.273438,27 C 52.01428,27 51,27.956201 51,29.144531 l 0,1 C 51,28.956201 52.01428,28 53.273438,28 l 5.453124,0 C 59.98572,28 61,28.956201 61,30.144531 l 0,-1 C 61,27.956201 59.98572,27 58.726562,27 l -5.453124,0 z"/>
 <path style="opacity:0.2" d="M 20.5,28 A 2.5,2.5 0 0 0 18,30.5 2.5,2.5 0 0 0 20.5,33 2.5,2.5 0 0 0 23,30.5 2.5,2.5 0 0 0 20.5,28 Z m 7,0 A 2.5,2.5 0 0 0 25,30.5 2.5,2.5 0 0 0 27.5,33 2.5,2.5 0 0 0 30,30.5 2.5,2.5 0 0 0 27.5,28 Z m 7,0 A 2.5,2.5 0 0 0 32,30.5 2.5,2.5 0 0 0 34.5,33 2.5,2.5 0 0 0 37,30.5 2.5,2.5 0 0 0 34.5,28 Z m 7,0 A 2.5,2.5 0 0 0 39,30.5 2.5,2.5 0 0 0 41.5,33 2.5,2.5 0 0 0 44,30.5 2.5,2.5 0 0 0 41.5,28 Z m -17,6 A 2.5,2.5 0 0 0 22,36.5 2.5,2.5 0 0 0 24.5,39 2.5,2.5 0 0 0 27,36.5 2.5,2.5 0 0 0 24.5,34 Z m 7,0 A 2.5,2.5 0 0 0 29,36.5 2.5,2.5 0 0 0 31.5,39 2.5,2.5 0 0 0 34,36.5 2.5,2.5 0 0 0 31.5,34 Z m 7,0 A 2.5,2.5 0 0 0 36,36.5 2.5,2.5 0 0 0 38.5,39 2.5,2.5 0 0 0 41,36.5 2.5,2.5 0 0 0 38.5,34 Z"/>
 <path style="fill:#ffffff" d="M 20.5 27 A 2.5 2.5 0 0 0 18 29.5 A 2.5 2.5 0 0 0 20.5 32 A 2.5 2.5 0 0 0 23 29.5 A 2.5 2.5 0 0 0 20.5 27 z M 27.5 27 A 2.5 2.5 0 0 0 25 29.5 A 2.5 2.5 0 0 0 27.5 32 A 2.5 2.5 0 0 0 30 29.5 A 2.5 2.5 0 0 0 27.5 27 z M 34.5 27 A 2.5 2.5 0 0 0 32 29.5 A 2.5 2.5 0 0 0 34.5 32 A 2.5 2.5 0 0 0 37 29.5 A 2.5 2.5 0 0 0 34.5 27 z M 41.5 27 A 2.5 2.5 0 0 0 39 29.5 A 2.5 2.5 0 0 0 41.5 32 A 2.5 2.5 0 0 0 44 29.5 A 2.5 2.5 0 0 0 41.5 27 z M 24.5 33 A 2.5 2.5 0 0 0 22 35.5 A 2.5 2.5 0 0 0 24.5 38 A 2.5 2.5 0 0 0 27 35.5 A 2.5 2.5 0 0 0 24.5 33 z M 31.5 33 A 2.5 2.5 0 0 0 29 35.5 A 2.5 2.5 0 0 0 31.5 38 A 2.5 2.5 0 0 0 34 35.5 A 2.5 2.5 0 0 0 31.5 33 z M 38.5 33 A 2.5 2.5 0 0 0 36 35.5 A 2.5 2.5 0 0 0 38.5 38 A 2.5 2.5 0 0 0 41 35.5 A 2.5 2.5 0 0 0 38.5 33 z"/>
 <path style="opacity:0.1;fill:#ffffff" d="M 15.666016 23 C 14.203993 23 12.786988 24.077153 13.027344 25.375 L 13.078125 25.654297 C 13.354475 24.703816 14.488101 24 15.666016 24 L 47.333984 24 C 48.511899 24 49.645525 24.703816 49.921875 25.654297 L 49.972656 25.375 C 50.213012 24.077153 48.796007 23 47.333984 23 L 15.666016 23 z"/>
 <path style="fill:#ffffff;opacity:0.1" d="M 9.25 16 C 7.4495 16 6 17.274565 6 18.857422 L 6 19.857422 C 6 18.274565 7.4495 17 9.25 17 L 54.75 17 C 56.5505 17 58 18.274565 58 19.857422 L 58 18.857422 C 58 17.274565 56.5505 16 54.75 16 L 9.25 16 z"/>
</svg>

<svg xmlns="http://www.w3.org/2000/svg" width="64" height="64" version="1"><rect style="opacity:.2" width="52" height="32" x="6" y="17" rx="3.25" ry="2.857"/><rect style="fill:#8e8e8e" width="52" height="32" x="6" y="16" rx="3.25" ry="2.857"/><path style="opacity:.2" d="M15.666 24h31.668c1.462 0 2.88 1.077 2.64 2.375l-2.64 14.25C47.094 41.923 46.157 43 44.695 43h-26.39c-1.462 0-2.399-1.077-2.64-2.375l-2.638-14.25C12.787 25.077 14.204 24 15.666 24z"/><path style="fill:#2bd677" d="M15.666 23h31.668c1.462 0 2.88 1.077 2.64 2.375l-2.64 14.25C47.094 40.923 46.157 42 44.695 42h-26.39c-1.462 0-2.399-1.077-2.64-2.375l-2.638-14.25C12.787 24.077 14.204 23 15.666 23z"/><rect style="opacity:.2" width="10" height="10" x="2" y="28" rx="2.273" ry="2.145"/><rect style="fill:#b3b3b3" width="10" height="10" x="2" y="27" rx="2.273" ry="2.145"/><circle style="opacity:.5" cx="7" cy="32" r="3"/><rect style="opacity:.2" width="10" height="10" x="51" y="28" rx="2.273" ry="2.145"/><rect style="fill:#b3b3b3" width="10" height="10" x="51" y="27" rx="2.273" ry="2.145"/><circle style="opacity:.5" cx="56" cy="32" r="3"/><path style="opacity:.1;fill:#fff" d="M4.273 27C3.014 27 2 27.956 2 29.145v1C2 28.956 3.014 28 4.273 28h5.454c1.259 0 2.273.956 2.273 2.145v-1C12 27.956 10.986 27 9.727 27H4.273zM53.273 27C52.014 27 51 27.956 51 29.145v1C51 28.956 52.014 28 53.273 28h5.454c1.259 0 2.273.956 2.273 2.145v-1C61 27.956 59.986 27 58.727 27h-5.454z"/><path style="opacity:.2" d="M20.5 28a2.5 2.5 0 0 0-2.5 2.5 2.5 2.5 0 0 0 2.5 2.5 2.5 2.5 0 0 0 2.5-2.5 2.5 2.5 0 0 0-2.5-2.5zm7 0a2.5 2.5 0 0 0-2.5 2.5 2.5 2.5 0 0 0 2.5 2.5 2.5 2.5 0 0 0 2.5-2.5 2.5 2.5 0 0 0-2.5-2.5zm7 0a2.5 2.5 0 0 0-2.5 2.5 2.5 2.5 0 0 0 2.5 2.5 2.5 2.5 0 0 0 2.5-2.5 2.5 2.5 0 0 0-2.5-2.5zm7 0a2.5 2.5 0 0 0-2.5 2.5 2.5 2.5 0 0 0 2.5 2.5 2.5 2.5 0 0 0 2.5-2.5 2.5 2.5 0 0 0-2.5-2.5zm-17 6a2.5 2.5 0 0 0-2.5 2.5 2.5 2.5 0 0 0 2.5 2.5 2.5 2.5 0 0 0 2.5-2.5 2.5 2.5 0 0 0-2.5-2.5zm7 0a2.5 2.5 0 0 0-2.5 2.5 2.5 2.5 0 0 0 2.5 2.5 2.5 2.5 0 0 0 2.5-2.5 2.5 2.5 0 0 0-2.5-2.5zm7 0a2.5 2.5 0 0 0-2.5 2.5 2.5 2.5 0 0 0 2.5 2.5 2.5 2.5 0 0 0 2.5-2.5 2.5 2.5 0 0 0-2.5-2.5z"/><path style="fill:#fff" d="M20.5 27a2.5 2.5 0 0 0-2.5 2.5 2.5 2.5 0 0 0 2.5 2.5 2.5 2.5 0 0 0 2.5-2.5 2.5 2.5 0 0 0-2.5-2.5zm7 0a2.5 2.5 0 0 0-2.5 2.5 2.5 2.5 0 0 0 2.5 2.5 2.5 2.5 0 0 0 2.5-2.5 2.5 2.5 0 0 0-2.5-2.5zm7 0a2.5 2.5 0 0 0-2.5 2.5 2.5 2.5 0 0 0 2.5 2.5 2.5 2.5 0 0 0 2.5-2.5 2.5 2.5 0 0 0-2.5-2.5zm7 0a2.5 2.5 0 0 0-2.5 2.5 2.5 2.5 0 0 0 2.5 2.5 2.5 2.5 0 0 0 2.5-2.5 2.5 2.5 0 0 0-2.5-2.5zm-17 6a2.5 2.5 0 0 0-2.5 2.5 2.5 2.5 0 0 0 2.5 2.5 2.5 2.5 0 0 0 2.5-2.5 2.5 2.5 0 0 0-2.5-2.5zm7 0a2.5 2.5 0 0 0-2.5 2.5 2.5 2.5 0 0 0 2.5 2.5 2.5 2.5 0 0 0 2.5-2.5 2.5 2.5 0 0 0-2.5-2.5zm7 0a2.5 2.5 0 0 0-2.5 2.5 2.5 2.5 0 0 0 2.5 2.5 2.5 2.5 0 0 0 2.5-2.5 2.5 2.5 0 0 0-2.5-2.5z"/><path style="opacity:.1;fill:#fff" d="M15.666 23c-1.462 0-2.879 1.077-2.639 2.375l.051.28c.276-.951 1.41-1.655 2.588-1.655h31.668c1.178 0 2.312.704 2.588 1.654l.05-.279C50.214 24.077 48.797 23 47.335 23H15.666z"/><path style="fill:#fff;opacity:.1" d="M9.25 16C7.45 16 6 17.275 6 18.857v1C6 18.275 7.45 17 9.25 17h45.5c1.8 0 3.25 1.275 3.25 2.857v-1C58 17.275 56.55 16 54.75 16H9.25z"/></svg>
